X: 31291
T: COTILLION No. 23. JIM CROW SETT tune 5
C:
%R: march
B: Elias Howe "The Musician's Companion" Part 3 1844 p.129 #1
S: http://imslp.org/wiki/The_Musician's_Companion_(Howe,_Elias)
Z: 2015 John Chambers <jc:trillian.mit.edu>
M: 2/4
L: 1/16
K: G
% - - - - - - - - - - - - - - - - - - - - - - - - - - - - -
d2 |\
g2dd e2d2 | B2d2d2d2 | g2dd e2d2 | B2G2G2 d2 |\
g2d2e2d2 | B2d2 d2dd | g2dd e2(dc) | B2G2G2 H|]
(ga) |\
b2b2a2g2 | e2g2g2 (ga) | b2b2a2g2 | e'2a2a2 (ga) |\
b2b2a2g2 | e2g2g2d'2 | g'2d'2e'3d' | b2g2"^D.C."g2 |]
% - - - - - - - - - - Dance description - - - - - - - - - -
%%begintext align
%% All alamand corners,
%% allamand partners,
%% all balance to corners,
%% turn partners,
%% grand chain,
%% all promenade.
%%endtext
% - - - - - - - - - - - - - - - - - - - - - - - - - - - - -
%%sep 1 1 300
